source/img/logo-mobile.svg

<svg width="190" height="39" viewBox="0 0 190 39" fill="none" xmlns="http://www.w3.org/2000/svg">
<path d="M6.07 21.72V19.46C12.7536 18.5423 19.4937 18.0979 26.24 18.13C26.24 18.73 26.24 19.34 26.18 19.95C28.0976 19.099 30.1128 18.4877 32.18 18.13C30.8625 14.722 28.4618 11.8412 25.3471 9.93087C22.2324 8.02052 18.5764 7.1864 14.9414 7.55683C11.3064 7.92727 7.89379 9.48172 5.22852 11.9811C2.56325 14.4804 0.792969 17.7863 0.190001 21.39L6.07 21.72Z" fill="#FDC305"/>
<path d="M27.24 25.23C26.08 26.51 25.85 26.43 25.85 28.68C25.85 29.59 25.85 33.58 25.85 37.86C28.1425 36.346 30.0245 34.2879 31.328 31.8694C32.6315 29.4509 33.3158 26.7474 33.32 24C33.3068 22.9591 33.1997 21.9216 33 20.9C30.9282 22.1295 28.9967 23.5814 27.24 25.23Z" fill="#FDC305"/>
<path d="M6.36 26.72C6.36 26.72 2.57 25.28 1.17 24.89C0.787067 24.7693 0.396097 24.6757 0 24.61C0.108395 27.496 0.965588 30.3041 2.48739 32.7586C4.00919 35.2131 6.14326 37.2296 8.68 38.61L6.36 26.72Z" fill="#FDC305"/>
<path d="M26.29 18.12C26.3307 12.5986 25.862 7.08528 24.89 1.65C24.89 1.65 24.75 0.36 24 1.41C23.4109 2.65814 23.0067 3.98539 22.8 5.35C18.5418 5.07577 14.2675 5.18957 10.03 5.69C9.24 3 7.85 1.75 7.18 2C6.51 2.25 6.46 5.31 6.46 5.31L6.13 19.41C12.8113 18.506 19.548 18.0749 26.29 18.12V18.12Z" fill="#F06351"/>
<path d="M12.41 15C12.41 14.91 13.41 15.68 13.82 15.92C14.23 16.16 14.43 16.34 14.43 16.51C14.43 16.68 14.16 16.85 13.8 16.85C13.44 16.85 12.89 16.73 12.8 16.58H13.74H14.03C13.4207 16.1294 12.8757 15.5978 12.41 15V15Z" fill="black"/>
<path d="M19.89 15.11L18.8 16.44C18.8 16.5 18.63 16.79 18.98 16.74C19.3942 16.6783 19.8023 16.5812 20.2 16.45C20.31 16.45 20.27 16.26 20.09 16.28C19.91 16.3 19.4 16.33 19.09 16.39L19.93 15.13C19.93 15.13 20 15 19.89 15.11Z" fill="black"/>
<path d="M16.75 21.2C17.2135 20.9958 17.5967 20.6443 17.84 20.2C18.12 19.55 17.84 19.29 17.4 19.2C16.7979 19.0902 16.1765 19.2116 15.66 19.54C15.27 19.9 15.32 20.26 15.61 20.54C15.9613 20.8062 16.3442 21.0279 16.75 21.2V21.2Z" fill="black"/>
<path d="M16.35 22.45C16.2379 22.6785 16.0816 22.8825 15.89 23.05C15.6052 23.2791 15.2551 23.4122 14.89 23.43C14.3638 23.472 13.8406 23.3189 13.42 23C13.2222 22.8808 13.0436 22.7324 12.89 22.56C12.7895 22.4491 12.6669 22.3605 12.53 22.3C12.53 22.3 13.28 26.4 15.1 27.05C16.92 27.7 17.24 26.3 17.3 25.92C17.3601 24.7851 17.0742 23.6588 16.48 22.69C16.46 22.38 16.45 22.58 16.35 22.45Z" fill="#F06351"/>
<path d="M14.71 23.59C14.2453 23.5247 13.7989 23.3651 13.3982 23.1209C12.9975 22.8767 12.651 22.5531 12.38 22.17C12.3667 22.157 12.3561 22.1414 12.3489 22.1242C12.3417 22.1071 12.338 22.0886 12.338 22.07C12.338 22.0514 12.3417 22.0329 12.3489 22.0158C12.3561 21.9986 12.3667 21.983 12.38 21.97C12.393 21.9567 12.4086 21.9461 12.4258 21.9389C12.4429 21.9317 12.4614 21.928 12.48 21.928C12.4986 21.928 12.5171 21.9317 12.5342 21.9389C12.5514 21.9461 12.567 21.9567 12.58 21.97C13.0848 22.6642 13.843 23.1313 14.69 23.27V23.27C15.0217 23.245 15.3426 23.1413 15.6261 22.9674C15.9096 22.7934 16.1475 22.5544 16.32 22.27L16.46 22.08L16.56 22.29C16.56 22.29 16.93 23.05 17.56 23.09C18.19 23.13 18.61 22.68 19.17 21.81C19.183 21.7967 19.1986 21.7861 19.2158 21.7789C19.2329 21.7717 19.2514 21.768 19.27 21.768C19.2886 21.768 19.3071 21.7717 19.3242 21.7789C19.3414 21.7861 19.357 21.7967 19.37 21.81C19.4023 21.8306 19.4255 21.8629 19.4348 21.9C19.4441 21.9372 19.4388 21.9766 19.42 22.01C18.78 23.01 18.15 23.45 17.54 23.41C17.308 23.3763 17.0867 23.2904 16.8927 23.1587C16.6987 23.0271 16.5371 22.8531 16.42 22.65C16.2233 22.9245 15.9676 23.1514 15.6717 23.3141C15.3758 23.4767 15.0471 23.571 14.71 23.59V23.59Z" fill="black"/>
<path d="M26.24 19.92C24.4445 21.5437 22.7512 23.277 21.17 25.11C19.5986 26.9361 17.8238 28.5768 15.88 30C15.66 29.47 14.26 28.49 14.26 28.49C14.26 28.49 11.13 26.35 9.08 24.67C7.97414 23.7373 6.9287 22.7353 5.95 21.67L3.95 21.56C6.84018 25.7655 11.0702 28.8676 15.95 30.36C16.81 30.22 19.22 28.5 21.02 27.1C23.1389 25.2819 25.124 23.3134 26.96 21.21C27.4625 20.621 27.8493 19.9425 28.1 19.21C27 19.6 26.24 19.92 26.24 19.92Z" fill="#F06351"/>
<path d="M90.2645 31.3592C89.3696 30.0926 88.9253 28.5739 89 27.0367V20.6301C88.8916 19.0764 89.3081 17.5308 90.1855 16.2304C91.0548 15.227 92.3983 14.7639 94.374 14.7639C96.3498 14.7639 97.6143 15.227 98.4045 16.0761C99.2626 17.1515 99.6846 18.498 99.59 19.8583V21.402H95.7175V19.6267C95.7488 19.1016 95.6681 18.5759 95.4804 18.0829C95.3802 17.8839 95.2212 17.7188 95.024 17.6088C94.8269 17.4987 94.6005 17.4488 94.374 17.4654C93.8208 17.4654 93.4257 17.6198 93.2676 18.0058C93.0888 18.5542 93.0086 19.1287 93.0305 19.7039V27.963C92.9888 28.521 93.0978 29.08 93.3466 29.5839C93.5047 29.9699 93.8999 30.1242 94.4531 30.1242C95.0063 30.1242 95.3224 29.9699 95.4804 29.5839C95.6601 29.0623 95.7405 28.5129 95.7175 27.963V26.1105H99.59V27.6542C99.6704 29.0366 99.2508 30.4027 98.4045 31.5136C97.6143 32.4399 96.2707 32.903 94.374 32.903C92.4773 32.8258 91.0548 32.3627 90.2645 31.3592Z" fill="#111111"/>
<path d="M104.253 14.9957H108.757L112.077 32.5945H108.441L107.809 28.8895H105.201L104.569 32.5945H100.854L104.253 14.9957ZM107.493 26.5739L106.545 19.7042L105.596 26.5739H107.493Z" fill="#111111"/>
<path d="M114.843 17.9289H112.156V14.9957H121.56V17.8517H118.873V32.5945H114.843V17.9289Z" fill="#111111"/>
<path d="M128.752 14.9957H135.707V16.8482H131.202V22.6373H134.837V24.4126H131.202V30.8964H135.707V32.6717H128.673V14.9957H128.752Z" fill="#111111"/>
<path d="M137.761 14.9957H139.5L144.637 26.6511V14.9957H146.692V32.5945H145.111L139.895 20.5532V32.5945H137.761V14.9957Z" fill="#111111"/>
<path d="M149.063 14.9957H156.017V16.8482H151.513V22.6373H155.148V24.4126H151.513V30.8964H156.017V32.6717H149.063V14.9957Z" fill="#111111"/>
<path d="M158.072 14.9957H161.707C163.137 14.8992 164.559 15.2803 165.738 16.0763C166.607 16.771 167.002 18.006 167.002 19.627C167.002 21.8654 166.291 23.2548 164.79 23.7179L167.318 32.5173H164.869L162.498 24.2582H160.522V32.5173H157.993V14.9957H158.072ZM161.549 22.5601C162.364 22.6257 163.176 22.4069 163.841 21.9426C164.315 21.5567 164.552 20.7848 164.552 19.627C164.574 19.0518 164.494 18.4773 164.315 17.9288C164.137 17.5353 163.832 17.2098 163.446 17.0026C162.902 16.7603 162.304 16.6542 161.707 16.6938H160.601V22.4829H161.549V22.5601Z" fill="#111111"/>
<path d="M170.164 31.2815C169.342 29.9319 168.956 28.3717 169.057 26.8047V20.9384C169.038 19.8198 169.17 18.7037 169.452 17.6193C169.717 16.809 170.244 16.1046 170.954 15.6124C171.836 15.1023 172.854 14.8604 173.878 14.9177C175.538 14.9177 176.723 15.3037 177.434 16.1527C178.252 17.2739 178.644 18.639 178.541 20.0121V20.6296H176.17V20.0893C176.173 19.4429 176.12 18.7973 176.012 18.1596C175.945 17.7567 175.718 17.3959 175.379 17.1562C174.935 16.8714 174.408 16.7359 173.878 16.7702C173.311 16.7348 172.75 16.8991 172.297 17.2334C172.111 17.3864 171.959 17.5748 171.851 17.7872C171.742 17.9995 171.679 18.2313 171.665 18.4684C171.561 19.1584 171.508 19.8549 171.507 20.5524V27.1134C171.449 28.113 171.61 29.1131 171.981 30.0465C172.297 30.664 172.93 30.8956 173.878 30.8956C174.252 30.9412 174.632 30.8776 174.97 30.7127C175.307 30.5479 175.587 30.2893 175.775 29.9694C176.192 28.9933 176.381 27.9384 176.328 26.8818V25.6468H174.036V23.8715H178.62V32.5937H177.039L176.802 30.5869C176.595 31.2594 176.163 31.8451 175.576 32.2507C174.989 32.6563 174.28 32.8585 173.562 32.8253C172.909 32.8628 172.256 32.7414 171.663 32.472C171.07 32.2025 170.555 31.7935 170.164 31.2815V31.2815Z" fill="#111111"/>
<path d="M183.678 26.4192L179.805 15.0726H182.176L184.942 23.5633L187.629 15.0726H190L186.128 26.4192V32.5942H183.757V26.4192H183.678Z" fill="#111111"/>
</svg>

<svg width="190" height="39" fill="none" xmlns="http://www.w3.org/2000/svg"><path d="M6.07 21.72v-2.26a143.265 143.265 0 0 1 20.17-1.33c0 .6 0 1.21-.06 1.82a25.518 25.518 0 0 1 6-1.82A16.67 16.67 0 0 0 .19 21.39l5.88.33Zm21.17 3.51c-1.16 1.28-1.39 1.2-1.39 3.45v9.18A16.64 16.64 0 0 0 33.32 24a17.302 17.302 0 0 0-.32-3.1 33.109 33.109 0 0 0-5.76 4.33ZM6.36 26.72s-3.79-1.44-5.19-1.83A8.541 8.541 0 0 0 0 24.61a16.65 16.65 0 0 0 8.68 14L6.36 26.72Z" fill="#FDC305"/><path d="M26.29 18.12a89.799 89.799 0 0 0-1.4-16.47S24.75.36 24 1.41a14.22 14.22 0 0 0-1.2 3.94 70.34 70.34 0 0 0-12.77.34C9.24 3 7.85 1.75 7.18 2c-.67.25-.72 3.31-.72 3.31l-.33 14.1a143.211 143.211 0 0 1 20.16-1.29Z" fill="#F06351"/><path d="M12.41 15c0-.09 1 .68 1.41.92.41.24.61.42.61.59 0 .17-.27.34-.63.34s-.91-.12-1-.27h1.23A8.34 8.34 0 0 1 12.41 15Zm7.48.11-1.09 1.33c0 .06-.17.35.18.3a7.351 7.351 0 0 0 1.22-.29c.11 0 .07-.19-.11-.17-.18.02-.69.05-1 .11l.84-1.26s.07-.13-.04-.02Zm-3.14 6.09a2.3 2.3 0 0 0 1.09-1c.28-.65 0-.91-.44-1a2.43 2.43 0 0 0-1.74.34c-.39.36-.34.72-.05 1a5.34 5.34 0 0 0 1.14.66Z" fill="#000"/><path d="M16.35 22.45a1.92 1.92 0 0 1-.46.6 1.73 1.73 0 0 1-1 .38 2.15 2.15 0 0 1-1.47-.43 2.3 2.3 0 0 1-.53-.44c-.1-.11-.223-.2-.36-.26 0 0 .75 4.1 2.57 4.75 1.82.65 2.14-.75 2.2-1.13a5.61 5.61 0 0 0-.82-3.23c-.02-.31-.03-.11-.13-.24Z" fill="#F06351"/><path d="M14.71 23.59a3.44 3.44 0 0 1-2.361-1.466.14.14 0 0 1 .031-.154.14.14 0 0 1 .2 0 3.26 3.26 0 0 0 2.11 1.3 2.09 2.09 0 0 0 1.63-1l.14-.19.1.21s.37.76 1 .8c.63.04 1.05-.41 1.61-1.28a.14.14 0 0 1 .2 0 .15.15 0 0 1 .05.2c-.64 1-1.27 1.44-1.88 1.4a1.549 1.549 0 0 1-1.12-.76 2.26 2.26 0 0 1-1.71.94Z" fill="#000"/><path d="M26.24 19.92a58.634 58.634 0 0 0-5.07 5.19A31.633 31.633 0 0 1 15.88 30c-.22-.53-1.62-1.51-1.62-1.51s-3.13-2.14-5.18-3.82a34.139 34.139 0 0 1-3.13-3l-2-.11a22.57 22.57 0 0 0 12 8.8c.86-.14 3.27-1.86 5.07-3.26a58.13 58.13 0 0 0 5.94-5.89 6.15 6.15 0 0 0 1.14-2c-1.1.39-1.86.71-1.86.71Z" fill="#F06351"/><path d="M90.264 31.36A6.906 6.906 0 0 1 89 27.036V20.63a6.991 6.991 0 0 1 1.186-4.4c.869-1.003 2.212-1.466 4.188-1.466 1.976 0 3.24.463 4.03 1.312a5.453 5.453 0 0 1 1.186 3.782v1.544h-3.873v-1.775a3.715 3.715 0 0 0-.237-1.544c-.1-.2-.259-.364-.456-.474a1.16 1.16 0 0 0-.65-.144c-.553 0-.948.155-1.106.54a4.878 4.878 0 0 0-.237 1.699v8.259a3.132 3.132 0 0 0 .316 1.62c.158.387.553.541 1.106.541s.87-.154 1.027-.54a4.41 4.41 0 0 0 .237-1.621V26.11h3.873v1.544a5.808 5.808 0 0 1-1.186 3.86c-.79.926-2.133 1.389-4.03 1.389-1.897-.077-3.32-.54-4.11-1.544Zm13.989-16.364h4.504l3.32 17.598h-3.636l-.632-3.704h-2.608l-.632 3.704h-3.715l3.399-17.598Zm3.24 11.578-.948-6.87-.949 6.87h1.897Zm7.35-8.645h-2.687v-2.933h9.404v2.856h-2.687v14.742h-4.03V17.93Zm13.909-2.933h6.955v1.852h-4.505v5.79h3.635v1.775h-3.635v6.483h4.505v1.776h-7.034V14.996h.079Zm9.009 0h1.739l5.137 11.655V14.996h2.055v17.598h-1.581l-5.216-12.04v12.04h-2.134V14.996Zm11.302 0h6.954v1.852h-4.504v5.79h3.635v1.775h-3.635v6.483h4.504v1.776h-6.954V14.996Zm9.009 0h3.635a6.436 6.436 0 0 1 4.031 1.08c.869.695 1.264 1.93 1.264 3.551 0 2.238-.711 3.628-2.212 4.09l2.528 8.8h-2.449l-2.371-8.259h-1.976v8.26h-2.529V14.995h.079Zm3.477 7.564a3.514 3.514 0 0 0 2.292-.617c.474-.386.711-1.158.711-2.316a4.871 4.871 0 0 0-.237-1.698 1.978 1.978 0 0 0-.869-.926 3.68 3.68 0 0 0-1.739-.31h-1.106v5.79h.948v.077Zm8.615 8.722a7.654 7.654 0 0 1-1.107-4.477v-5.867a12.35 12.35 0 0 1 .395-3.319 3.933 3.933 0 0 1 1.502-2.007c.882-.51 1.9-.752 2.924-.694 1.66 0 2.845.386 3.556 1.235a5.807 5.807 0 0 1 1.107 3.86v.617h-2.371v-.54c.003-.647-.05-1.293-.158-1.93a1.539 1.539 0 0 0-.633-1.004 2.485 2.485 0 0 0-1.501-.386 2.411 2.411 0 0 0-1.581.463 1.738 1.738 0 0 0-.632 1.235c-.104.69-.157 1.387-.158 2.084v6.561c-.058 1 .103 2 .474 2.934.316.617.949.849 1.897.849.374.045.754-.018 1.092-.183.337-.165.617-.424.805-.744a6.968 6.968 0 0 0 .553-3.087v-1.235h-2.292v-1.775h4.584v8.722h-1.581l-.237-2.007a3.154 3.154 0 0 1-1.226 1.664 3.279 3.279 0 0 1-2.014.574 4.036 4.036 0 0 1-1.899-.353 3.93 3.93 0 0 1-1.499-1.19Zm13.514-4.862-3.873-11.347h2.371l2.766 8.49 2.687-8.49H190l-3.872 11.346v6.175h-2.371V26.42h-.079Z" fill="#111"/></svg>
